!!!COM: Music21
!!!OTL: mazurka_To-The-Edges
!!!OMV: mazurka_To-The-Edges
**kern
*clefG2
*k[f#c#]
*D:
*M3/4
=1
4.aa
4bb
8aa
=
4gg
4ff#
4ee
=
4dd
4b
4dd
=
4.a
8g
8f#L
8eJ
=
4d
8eL
8dJ
8eL
8f#J
=
2a
8gL
8aJ
=
4b
4a
4dd
=
4.a
8g
8f#L
8eJ
=
4d
8ff#L
8ggJ
4aa
!!linebreak:original
=
4.aa
8gg
8ff#L
8eeJ
=
4dd
4b
4dd
=
4.a
8g
8f#L
8eJ
=
4d
8eL
8dJ
8eL
8f#J
=
2a
8gL
8aJ
=
4b
4a
4dd
=
2.a
=||
4.ff#
4gg
8ff#
=
4ee
4aa
4ff#
=
[2.dd
!!linebreak:original
=
4dd]
4a
4f#
=
2g
[4dd
=
4dd]
4b
4g
=
2a
[4ee
=
4ee]
8ff#L
8ggJ
8ff#L
8eeJ
=
4dd
8ff#L
8ggJ
4aa
=
4ee
4aa
4ff#
=
[2.dd
=
4dd]
4a
4f#
=
2g
[4dd
=
4dd]
8eL
8f#J
8gL
8bJ
!!linebreak:original
=
4a
8gL
8aJ
8f#L
8gJ
=
8eL
8f#J
8gL
8aJ
8f#L
8eJ
=||
4d
2aa
=
2.aa
=
4gg
4.aa
8bb
=
2.aa
=
4gg
4aa
4bb
=
2ff#
4ee
=
4gg
4ff#
4dd
=
4.a
8g
8f#L
8eJ
!!linebreak:original
=
4d
8eL
8dJ
8eL
8f#J
=
2a
8gL
8aJ
=
4b
4a
4dd
=
4ee
4ff#
4gg
=
4.aa
4aa
8aa
=
4.aa
4aa
8aa
=
4gg
4aa
4bb
=
2.aa
=
4gg
4aa
4bb
=
2ff#
4ee
!!linebreak:original
=
4gg
4ff#
4dd
=
4.a
8g
8f#L
8eJ
=
4d
8eL
8dJ
8eL
8f#J
=
2a
8gL
8aJ
=
4b
4a
4dd
=
4ee
4ff#
4gg
=||
*-
